X:327
T:Instant Replay
M:C|
C:© Paul Gitlitz 2011
K:D
"D"DEFD AFED|FDFG AFED|DEFD AFED|"Bm"dAcA "A"BAFE|!
"D"DEFD AFED|"F#m"FDFG AFED|"G"d2fd edcB|1"A"AGFE "D"D2DD:|2"A"AGFE "D"D2FA|!
"D"d2fd "A"edcA|"Bm"BABc "F#m"BAFA|"D"d2fd "A"edcA|"Bm"BABc "F#m"A2Bc|!
"D"d2fd "A"edcA|"Bm"BABc "G"defg|"D"afge "Bm"fdec|"A"dBAF "D"D2FA|
"D"d2fd "A"edcA|"Bm"BABc "F#m"BAFA|"D"d2fd "A"edcA|BABc "D"d2Ac|!
"D"d2fd "A"edcA|"Bm"BABc "G"defg|"D"afge "Bm"fdec|"A"dBAF "D"D4|]
